src/images/logos/telegram-logo.svg

<svg width="24px" height="20px" viewBox="0 0 24 20">
    <path d="M1.47137906,8.71006022 C1.47137906,8.71006022 12.086001,4.31963958 15.7673728,2.77371682 C17.1785653,2.15534771 21.9643487,0.176566579
    21.9643487,0.176566579 C21.9643487,0.176566579 24.1731717,-0.689150167 23.9891031,1.41330479 C23.9277469,2.27902153 23.4368974,5.30903014
    22.9460478,8.58638639 C22.2097734,13.2241547 21.4121429,18.2947813 21.4121429,18.2947813 C21.4121429,18.2947813 21.2894305,19.7170303
    20.2463752,19.9643779 C19.2033198,20.2117256 17.4853463,19.0986612 17.1785653,18.8513135 C16.9331406,18.6658028 12.5768506,15.8831418
    10.9815895,14.5227298 C10.5520961,14.1517083 10.0612466,13.4096654 11.0429457,12.5439487 C13.2517688,10.5033306 15.8900852,7.96801729
    17.4853463,6.36025762 C18.2216207,5.61821469 18.957895,3.8867812 15.8900852,5.98923616 C11.5337953,9.01924477 7.23886153,11.8637426
    7.23886153,11.8637426 C7.23886153,11.8637426 6.25716238,12.4821118 4.41647649,11.9255796 C2.5757906,11.3690474 0.428323726,10.6270044
    0.428323726,10.6270044 C0.428323726,10.6270044 -1.04422499,9.69945078 1.47137906,8.71006022 Z" fill="#000" fill-rule="nonzero" stroke-width="0"></path>
</svg>

<svg viewBox="0 0 24 20">
  <path
    d="M1.471 8.71s10.615-4.39 14.296-5.936C17.18 2.155 21.964.177 21.964.177s2.21-.866 2.025 1.236c-.061.866-.552 3.896-1.043 7.173-.736 4.638-1.534 9.709-1.534 9.709s-.123 1.422-1.166 1.67c-1.043.247-2.76-.866-3.067-1.114-.246-.185-4.602-2.968-6.197-4.328-.43-.371-.92-1.113.06-1.98 2.21-2.04 4.848-4.575 6.443-6.183.737-.742 1.473-2.473-1.595-.37a523.896 523.896 0 01-8.651 5.874s-.982.618-2.823.062c-1.84-.557-3.988-1.299-3.988-1.299s-1.472-.928 1.043-1.917z" />
</svg>
